MonoIcons/scalable/status/orientation-portrait-left-symbolic-rtl.svg

<?xml version="1.0" encoding="UTF-8"?>
<svg height="16px" viewBox="0 0 16 16" width="16px" xmlns="http://www.w3.org/2000/svg">
    <path d="m 13.0625 2.167969 c 0 -0.617188 -0.496094 -1.113281 -1.113281 -1.113281 h -7.84375 c -0.617188 0 -1.113281 0.496093 -1.113281 1.113281 v 11.738281 c 0 0.617188 0.496093 1.113281 1.113281 1.113281 h 7.84375 c 0.617187 0 1.113281 -0.496093 1.113281 -1.113281 z m -3 5.839843 l -4.0625 3.992188 v -8 z m 0 0" fill="#2e3436"/>
</svg>

<svg width="16" height="16" viewBox="0 0 16 16" fill="none" xmlns="http://www.w3.org/2000/svg">
<path d="M13.0625 2.16797C13.0625 1.55078 12.5664 1.05469 11.9492 1.05469H4.10547C3.48828 1.05469 2.99219 1.55078 2.99219 2.16797V13.9062C2.99219 14.5234 3.48828 15.0195 4.10547 15.0195H11.9492C12.5664 15.0195 13.0625 14.5234 13.0625 13.9062V2.16797ZM10.0625 8.00781L6 12V4L10.0625 8.00781Z" fill="#2E3436"/>
</svg>
